; generated by Slic3r 1.2.9 on 2016-05-25 at 23:27:54

; external perimeters extrusion width = 0.40mm
; perimeters extrusion width = 0.40mm
; infill extrusion width = 0.40mm
; solid infill extrusion width = 0.40mm
; top infill extrusion width = 0.40mm

M190 S110 ; set bed temperature
M104 S240 ; set temperature
G28 X0 ; move X/Y to min endstops
G28 Y0 ; move X/Y to min endstops
G28 Z0 ; move Z to min endstops
G1 Z15.0 F80 ; move the platform down 5mm
G92 E0 ; zero the extruded length
;G1 F200 E7; extrude 3mm of feed stock
;G92 E0; zero the extruded length again
;G1 F80;  

M109 S240 ; wait for temperature to be reached
G21 ; set units to millimeters
G90 ; use absolute coordinates
M82 ; use absolute distances for extrusion
G92 E0
G1 Z0.300 F6000.000
G1 E-3.50000 F2400.00000
G92 E0
G1 Z0.600 F6000.000
G1 X103.886 Y34.954 F6000.000
G1 Z0.300 F6000.000
G1 E3.50000 F2400.00000
G1 X104.265 Y33.999 E3.60704 F1500.000
G1 X104.603 Y33.299 E3.68808
G1 X104.983 Y32.624 E3.76886
G1 X105.404 Y31.976 E3.84934
G1 X105.711 Y31.553 E3.90389
G1 X106.200 Y30.949 E3.98487
G1 X106.725 Y30.379 E4.06565
G1 X107.471 Y29.678 E4.17229
G1 X108.077 Y29.187 E4.25357
G1 X108.708 Y28.738 E4.33431
G1 X109.151 Y28.458 E4.38891
G1 X109.825 Y28.078 E4.46961
G1 X110.523 Y27.741 E4.55042
G1 X111.242 Y27.448 E4.63128
G1 X111.977 Y27.201 E4.71208
G1 X112.846 Y26.973 E4.80576
G1 X114.581 Y26.774 E4.98775
G1 X194.024 Y26.021 E13.26793
G1 X248.984 Y26.021 E18.99600
G1 X250.805 Y26.223 E19.18694
G1 X251.426 Y26.378 E19.25370 F1500.000
G1 X252.166 Y26.610 E19.33447
G1 X252.890 Y26.889 E19.41536
G1 X253.595 Y27.212 E19.49616
G1 X254.278 Y27.578 E19.57689
G1 X254.936 Y27.986 E19.65764
G1 X255.766 Y28.589 E19.76458
G1 X304.620 Y68.023 E26.30805
G1 X306.350 Y69.931 E26.57649
G1 X307.416 Y72.276 E26.84493
G1 X307.722 Y74.515 E27.08045
G1 X307.722 Y82.515 E27.91424
G1 X307.445 Y84.648 E28.13847
G1 X306.843 Y86.925 E28.38389
G1 X306.485 Y87.984 E28.50040
G1 X306.185 Y88.707 E28.58202
G1 X300.440 Y101.042 E30.00015
G1 X299.004 Y103.180 E30.26860
G1 X297.263 Y104.613 E30.50361
G1 X254.277 Y131.150 E35.76868
G1 X253.595 Y131.516 E35.84940
G1 X252.890 Y131.839 E35.93019
G1 X252.402 Y132.032 E35.98489
G1 X251.667 Y132.279 E36.06568
G1 X250.805 Y132.505 E36.15857
G1 X249.063 Y132.706 E36.34135
G1 X169.699 Y133.458 E44.61329
G1 X114.660 Y133.459 E50.34960
G1 X112.839 Y133.257 E50.54053
G1 X112.218 Y133.102 E50.60728
G1 X111.479 Y132.870 E50.68805
G1 X110.754 Y132.591 E50.76895
G1 X110.049 Y132.268 E50.84976
G1 X109.367 Y131.902 E50.93047
G1 X108.708 Y131.494 E51.01126
G1 X108.077 Y131.045 E51.09196
G1 X107.473 Y130.556 E51.17299
G1 X106.903 Y130.031 E51.25371
G1 X106.367 Y129.471 E51.33451
G1 X105.711 Y128.679 E51.44166
G1 X105.263 Y128.048 E51.52238
G1 X104.854 Y127.389 E51.60319
G1 X104.488 Y126.707 E51.68385
G1 X104.165 Y126.002 E51.76469
G1 X103.972 Y125.514 E51.81938
G1 X103.725 Y124.781 E51.90005
G1 X103.499 Y123.916 E51.99314
G1 X103.298 Y122.096 E52.18403
G1 X103.298 Y38.136 E60.93458
G1 X103.499 Y36.316 E61.12548
G1 X103.655 Y35.694 E61.19227
G1 X103.868 Y35.011 E61.26681
G1 X104.673 Y35.237 F6000.000
G1 X105.031 Y34.331 E61.36837 F1500.000
G1 X105.347 Y33.679 E61.44391
G1 X105.702 Y33.050 E61.51923
G1 X106.095 Y32.446 E61.59427
G1 X106.372 Y32.065 E61.64335
G1 X106.827 Y31.502 E61.71884
G1 X107.316 Y30.970 E61.79416
G1 X108.024 Y30.305 E61.89533
G1 X108.589 Y29.848 E61.97111
G1 X109.178 Y29.430 E62.04639
G1 X109.576 Y29.177 E62.09552
G1 X110.205 Y28.822 E62.17076
G1 X110.855 Y28.507 E62.24610
G1 X111.525 Y28.234 E62.32148
G1 X112.210 Y28.003 E62.39681
G1 X113.028 Y27.789 E62.48497
G1 X114.589 Y27.610 E62.64873
G1 X194.024 Y26.857 E70.92807
G1 X248.984 Y26.857 E76.65615
G1 X250.623 Y27.038 E76.82796
G1 X251.193 Y27.181 E76.88927 F1500.000
G1 X251.883 Y27.397 E76.96457
G1 X252.558 Y27.656 E77.03998
G1 X253.216 Y27.956 E77.11530
G1 X253.852 Y28.297 E77.19058
G1 X254.466 Y28.677 E77.26586
G1 X255.254 Y29.250 E77.36732
G1 X304.095 Y68.674 E83.90910
G1 X305.721 Y70.496 E84.16366
G1 X306.675 Y72.745 E84.41821
G1 X306.887 Y74.515 E84.60401
G1 X306.887 Y82.515 E85.43780
G1 X306.637 Y84.435 E85.63957
G1 X306.035 Y86.711 E85.88499
G1 X305.713 Y87.664 E85.98983
G1 X305.413 Y88.388 E86.07145
G1 X299.683 Y100.688 E87.48577
G1 X298.304 Y102.704 E87.74033
G1 X296.824 Y103.902 E87.93874
G1 X254.068 Y130.303 E93.17597
G1 X253.439 Y130.658 E93.25122
G1 X252.789 Y130.973 E93.32654
G1 X252.119 Y131.246 E93.40195
G1 X251.434 Y131.477 E93.47727
G1 X250.623 Y131.690 E93.56470
G1 X249.055 Y131.870 E93.72917
G1 X169.691 Y132.623 E102.00111
G1 X114.660 Y132.623 E107.73660
G1 X113.022 Y132.442 E107.90840
G1 X112.451 Y132.299 E107.96970
G1 X111.762 Y132.083 E108.04500
G1 X111.086 Y131.824 E108.12042
G1 X110.429 Y131.524 E108.19575
G1 X109.792 Y131.183 E108.27100
G1 X109.178 Y130.802 E108.34632
G1 X108.589 Y130.385 E108.42156
G1 X108.026 Y129.929 E108.49710
G1 X107.494 Y129.440 E108.57236
G1 X106.993 Y128.919 E108.64769
G1 X106.372 Y128.167 E108.74934
G1 X105.954 Y127.578 E108.82461
G1 X105.573 Y126.964 E108.89994
G1 X105.232 Y126.328 E108.97514
G1 X104.932 Y125.670 E109.05051
G1 X104.758 Y125.231 E109.09973
G1 X104.527 Y124.547 E109.17493
G1 X104.314 Y123.734 E109.26255
G1 X104.133 Y122.096 E109.43432
G1 X104.133 Y38.136 E118.18487
G1 X104.314 Y36.498 E118.35665
G1 X104.457 Y35.927 E118.41798
G1 X104.654 Y35.294 E118.48704
G1 X105.459 Y35.520 F6000.000
G1 X105.798 Y34.663 E118.58313 F1500.000
G1 X106.092 Y34.059 E118.65318
G1 X106.422 Y33.475 E118.72302
G1 X106.786 Y32.916 E118.79263
G1 X107.032 Y32.577 E118.83625
G1 X107.454 Y32.054 E118.90625
G1 X107.907 Y31.561 E118.97609
G1 X108.579 Y30.929 E119.07225
G1 X109.101 Y30.508 E119.14210
G1 X109.648 Y30.121 E119.21191
G1 X110.001 Y29.896 E119.25557
G1 X110.584 Y29.567 E119.32535
G1 X111.187 Y29.274 E119.39522
G1 X111.808 Y29.020 E119.46512
G1 X112.443 Y28.805 E119.53498
G1 X113.210 Y28.604 E119.61760
G1 X114.597 Y28.445 E119.76313
G1 X194.024 Y27.693 E128.04166
G1 X248.984 Y27.693 E133.76973
G1 X250.440 Y27.854 E133.92242
G1 X250.960 Y27.983 E133.97826 F1500.000
G1 X251.600 Y28.183 E134.04810
G1 X252.226 Y28.422 E134.11803
G1 X252.836 Y28.701 E134.18788
G1 X253.427 Y29.016 E134.25769
G1 X253.997 Y29.369 E134.32751
G1 X254.742 Y29.910 E134.42351
G1 X303.570 Y69.324 E140.96358
G1 X305.085 Y71.057 E141.20345
G1 X305.921 Y73.201 E141.44332
G1 X306.051 Y74.515 E141.58092
G1 X306.051 Y82.515 E142.41470
G1 X305.829 Y84.221 E142.59401
G1 X305.227 Y86.497 E142.83943
G1 X304.941 Y87.344 E142.93260
G1 X304.641 Y88.068 E143.01422
G1 X298.926 Y100.335 E144.42473
G1 X297.607 Y102.222 E144.66460
G1 X296.385 Y103.191 E144.82719
G1 X253.643 Y129.584 E150.06274
G1 X253.060 Y129.913 E150.13253
G1 X252.457 Y130.206 E150.20239
G1 X251.836 Y130.460 E150.27231
G1 X251.201 Y130.675 E150.34216
G1 X250.440 Y130.874 E150.42414
G1 X249.047 Y131.035 E150.57031
G1 X169.683 Y131.787 E158.84224
G1 X114.660 Y131.787 E164.57690
G1 X113.204 Y131.626 E164.72958
G1 X112.684 Y131.497 E164.78542
G1 X112.045 Y131.297 E164.85526
G1 X111.418 Y131.058 E164.92519
G1 X110.808 Y130.779 E164.99506
G1 X110.217 Y130.464 E165.06485
G1 X109.647 Y130.111 E165.13470
G1 X109.101 Y129.724 E165.20447
G1 X108.578 Y129.302 E165.27452
G1 X108.085 Y128.849 E165.34432
G1 X107.620 Y128.366 E165.41417
G1 X107.032 Y127.655 E165.51034
G1 X106.645 Y127.109 E165.58014
G1 X106.292 Y126.539 E165.65000
G1 X105.977 Y125.948 E165.71975
G1 X105.699 Y125.338 E165.78964
G1 X105.544 Y124.948 E165.83338
G1 X105.330 Y124.314 E165.90313
G1 X105.130 Y123.552 E165.98527
G1 X104.969 Y122.096 E166.13793
G1 X104.969 Y38.136 E174.88847
G1 X105.130 Y36.680 E175.04113
G1 X105.259 Y36.160 E175.09700
G1 X105.440 Y35.577 E175.16059
G1 X106.245 Y35.803 F6000.000
G1 X106.465 Y35.226 E175.22503 F1500.000
G1 X106.721 Y34.663 E175.28944
G1 X107.138 Y33.905 E175.37962
G1 X107.477 Y33.385 E175.44430
G1 X107.847 Y32.890 E175.50874
G1 X108.247 Y32.419 E175.57315
G1 X108.942 Y31.723 E175.67567
G1 X109.414 Y31.322 E175.74019
G1 X110.115 Y30.814 E175.83041
G1 X110.643 Y30.488 E175.89508
G1 X111.519 Y30.041 E175.99759
G1 X112.091 Y29.806 E176.06202
G1 X112.676 Y29.608 E176.12640
G1 X113.391 Y29.420 E176.20349
G1 X114.605 Y29.281 E176.33079
G1 X194.024 Y28.528 E184.60849
G1 X248.984 Y28.528 E190.33657
G1 X250.258 Y28.669 E190.47013
G1 X250.727 Y28.786 E190.52051 F1500.000
G1 X251.317 Y28.969 E190.58488
G1 X251.894 Y29.189 E190.64933
G1 X252.457 Y29.445 E190.71372
G1 X253.002 Y29.736 E190.77806
G1 X253.527 Y30.060 E190.84241
G1 X254.230 Y30.570 E190.93295
G1 X303.045 Y69.974 E197.47131
G1 X304.442 Y71.611 E197.69554
G1 X305.216 Y74.515 E198.00877
G1 X305.216 Y82.515 E198.84256
G1 X305.021 Y84.007 E198.99941
G1 X304.419 Y86.284 E199.24483
G1 X304.169 Y87.024 E199.32633
G1 X303.869 Y87.748 E199.40795
G1 X298.168 Y99.982 E200.81465
G1 X296.915 Y101.730 E201.03887
G1 X295.946 Y102.480 E201.16655
G1 X253.218 Y128.864 E206.40043
G1 X252.681 Y129.169 E206.46476
G1 X252.125 Y129.439 E206.52914
G1 X251.553 Y129.674 E206.59359
G1 X250.968 Y129.872 E206.65797
G1 X250.258 Y130.059 E206.73449
G1 X249.039 Y130.199 E206.86235
G1 X169.675 Y130.951 E215.13428
G1 X114.660 Y130.952 E220.86813
G1 X113.387 Y130.811 E221.00168
G1 X112.917 Y130.694 E221.05206
G1 X112.328 Y130.511 E221.11643
G1 X111.750 Y130.291 E221.18089
G1 X111.187 Y130.035 E221.24528
G1 X110.643 Y129.744 E221.30961
G1 X110.117 Y129.420 E221.37399
G1 X109.613 Y129.064 E221.43830
G1 X109.131 Y128.675 E221.50285
G1 X108.676 Y128.258 E221.56719
G1 X108.247 Y127.814 E221.63158
G1 X107.692 Y127.143 E221.72226
G1 X107.336 Y126.639 E221.78659
G1 X107.012 Y126.113 E221.85098
G1 X106.721 Y125.569 E221.91528
G1 X106.465 Y125.006 E221.97969
G1 X106.132 Y124.081 E222.08221
G1 X105.945 Y123.369 E222.15888
G1 X105.804 Y122.096 E222.29241
G1 X105.804 Y38.136 E231.04296
G1 X105.945 Y36.863 E231.17650
G1 X106.062 Y36.393 E231.22691
G1 X106.227 Y35.860 E231.28503
G1 E227.78503 F2400.00000
G92 E0
G1 Z0.600 F6000.000
G1 X153.676 Y110.580 F6000.000
G1 Z0.300 F6000.000
G1 E3.50000 F2400.00000
G1 X153.676 Y115.652 E4.02854 F1500.000
G1 X130.604 Y115.652 E6.43310
G1 X130.604 Y110.580 E6.96164
G1 X153.616 Y110.580 E9.35994
G1 X152.840 Y111.416 F6000.000
G1 X152.840 Y114.816 E9.71430 F1500.000
G1 X131.440 Y114.816 E11.94467
G1 X131.440 Y111.416 E12.29903
G1 X152.780 Y111.416 E14.52315
G1 X153.240 Y111.416 F6000.000
G1 X153.676 Y109.652 F6000.000
G1 X130.604 Y109.652 E16.92770 F1500.000
G1 X130.604 Y104.580 E17.45624
G1 X153.676 Y104.580 E19.86080
G1 X153.676 Y109.592 E20.38309
G1 X152.840 Y108.816 F6000.000
G1 X131.440 Y108.816 E22.61346 F1500.000
G1 X131.440 Y105.416 E22.96782
G1 X152.840 Y105.416 E25.19819
G1 X152.840 Y108.756 E25.54630
G1 X152.840 Y109.216 F6000.000
G1 X153.676 Y103.652 F6000.000
G1 X130.604 Y103.652 E27.95085 F1500.000
G1 X130.604 Y98.580 E28.47939
G1 X153.676 Y98.580 E30.88395
G1 X153.676 Y103.592 E31.40623
G1 X152.840 Y102.816 F6000.000
G1 X131.440 Y102.816 E33.63661 F1500.000
G1 X131.440 Y99.416 E33.99097
G1 X152.840 Y99.416 E36.22134
G1 X152.840 Y102.756 E36.56944
G1 X152.840 Y103.216 F6000.000
G1 X153.676 Y97.652 F6000.000
G1 X130.604 Y97.652 E38.97400 F1500.000
G1 X130.604 Y92.580 E39.50254
G1 X153.676 Y92.580 E41.90710
G1 X153.676 Y97.592 E42.42938
G1 X152.840 Y96.816 F6000.000
G1 X131.440 Y96.816 E44.65976 F1500.000
G1 X131.440 Y93.416 E45.01411
G1 X152.840 Y93.416 E47.24449
G1 X152.840 Y96.756 E47.59259
G1 X152.840 Y97.216 F6000.000
G1 X153.676 Y91.652 F6000.000
G1 X130.604 Y91.652 E49.99715 F1500.000
G1 X130.604 Y86.580 E50.52569
G1 X153.676 Y86.580 E52.93024
G1 X153.676 Y91.592 E53.45253
G1 X152.840 Y90.816 F6000.000
G1 X131.440 Y90.816 E55.68290 F1500.000
G1 X131.440 Y87.416 E56.03726
G1 X152.840 Y87.416 E58.26764
G1 X152.840 Y90.756 E58.61574
G1 X152.840 Y91.216 F6000.000
G1 X153.676 Y85.652 F6000.000
G1 X130.604 Y85.652 E61.02030 F1500.000
G1 X130.604 Y80.580 E61.54884
G1 X153.676 Y80.580 E63.95339
G1 X153.676 Y85.592 E64.47568
G1 X152.840 Y84.816 F6000.000
G1 X131.440 Y84.816 E66.70605 F1500.000
G1 X131.440 Y81.416 E67.06041
G1 X152.840 Y81.416 E69.29079
G1 X152.840 Y84.756 E69.63889
G1 X152.840 Y85.216 F6000.000
G1 X153.676 Y79.652 F6000.000
G1 X130.604 Y79.652 E72.04345 F1500.000
G1 X130.604 Y74.580 E72.57199
G1 X153.676 Y74.580 E74.97654
G1 X153.676 Y79.592 E75.49883
G1 X152.840 Y78.816 F6000.000
G1 X131.440 Y78.816 E77.72920 F1500.000
G1 X131.440 Y75.416 E78.08356
G1 X152.840 Y75.416 E80.31393
G1 X152.840 Y78.756 E80.66204
G1 X152.840 Y79.216 F6000.000
G1 X153.676 Y73.652 F6000.000
G1 X130.604 Y73.652 E83.06659 F1500.000
G1 X130.604 Y68.580 E83.59514
G1 X153.676 Y68.580 E85.99969
G1 X153.676 Y73.592 E86.52198
G1 X152.840 Y72.816 F6000.000
G1 X131.440 Y72.816 E88.75235 F1500.000
G1 X131.440 Y69.416 E89.10671
G1 X152.840 Y69.416 E91.33708
G1 X152.840 Y72.756 E91.68519
G1 X152.840 Y73.216 F6000.000
G1 X153.676 Y67.652 F6000.000
G1 X130.604 Y67.652 E94.08974 F1500.000
G1 X130.604 Y62.580 E94.61828
G1 X153.676 Y62.580 E97.02284
G1 X153.676 Y67.592 E97.54513
G1 X152.840 Y66.816 F6000.000
G1 X131.440 Y66.816 E99.77550 F1500.000
G1 X131.440 Y63.416 E100.12986
G1 X152.840 Y63.416 E102.36023
G1 X152.840 Y66.756 E102.70834
G1 X152.840 Y67.216 F6000.000
G1 X153.676 Y61.652 F6000.000
G1 X130.604 Y61.652 E105.11289 F1500.000
G1 X130.604 Y56.580 E105.64143
G1 X153.676 Y56.580 E108.04599
G1 X153.676 Y61.592 E108.56827
G1 X152.840 Y60.816 F6000.000
G1 X131.440 Y60.816 E110.79865 F1500.000
G1 X131.440 Y57.416 E111.15301
G1 X152.840 Y57.416 E113.38338
G1 X152.840 Y60.756 E113.73148
G1 X152.840 Y61.216 F6000.000
G1 X153.676 Y55.652 F6000.000
G1 X130.604 Y55.652 E116.13604 F1500.000
G1 X130.604 Y50.580 E116.66458
G1 X153.676 Y50.580 E119.06914
G1 X153.676 Y55.592 E119.59142
G1 X152.840 Y54.816 F6000.000
G1 X131.440 Y54.816 E121.82180 F1500.000
G1 X131.440 Y51.416 E122.17615
G1 X152.840 Y51.416 E124.40653
G1 X152.840 Y54.756 E124.75463
G1 X152.840 Y55.216 F6000.000
G1 X153.676 Y49.652 F6000.000
G1 X130.604 Y49.652 E127.15919 F1500.000
G1 X130.604 Y44.580 E127.68773
G1 X153.676 Y44.580 E130.09228
G1 X153.676 Y49.592 E130.61457
G1 X152.840 Y48.816 F6000.000
G1 X131.440 Y48.816 E132.84494 F1500.000
G1 X131.440 Y45.416 E133.19930
G1 X152.840 Y45.416 E135.42968
G1 X152.840 Y48.756 E135.77778
G1 X152.840 Y49.216 F6000.000
G1 X152.840 Y36.402 F6000.000
G1 X169.452 Y36.402 E137.50911 F1500.000
G1 X169.739 Y36.495 E137.54052
G1 X170.177 Y36.715 E137.59164 F1500.000
G1 X170.467 Y36.925 E137.62898
G1 X170.717 Y37.160 E137.66475
G1 X170.934 Y37.422 E137.70021
G1 X171.116 Y37.710 E137.73570
G1 X171.257 Y38.007 E137.77000
G1 X171.354 Y38.328 E137.80494
G1 X171.354 Y121.904 E146.51550
G1 X171.251 Y122.244 E146.55256
G1 X171.030 Y122.669 E146.60248
G1 X170.732 Y123.059 E146.65358
G1 X170.335 Y123.411 E146.70890
G1 X169.895 Y123.670 E146.76213
G1 X169.450 Y123.830 E146.81140
G1 X114.852 Y123.830 E152.50178
G1 X114.403 Y123.680 E152.55112
G1 X114.087 Y123.506 E152.58874
G1 X113.795 Y123.294 E152.62634
G1 X113.437 Y122.930 E152.67956
G1 X113.260 Y122.687 E152.71086
G1 X113.086 Y122.371 E152.74847
G1 X112.926 Y121.926 E152.79774
G1 X112.926 Y38.328 E161.51059
G1 X113.077 Y37.879 E161.55994
G1 X113.251 Y37.563 E161.59757
G1 X113.461 Y37.273 E161.63492
G1 X113.825 Y36.914 E161.68814
G1 X114.069 Y36.736 E161.71967
G1 X114.385 Y36.562 E161.75728
G1 X114.830 Y36.402 E161.80655
G1 X152.780 Y36.402 E165.76182
G1 X152.840 Y35.566 F6000.000
G1 X169.615 Y35.576 E167.51013 F1500.000
G1 X170.047 Y35.716 E167.55746 F1500.000
G1 X170.456 Y35.909 E167.60464
G1 X170.636 Y36.015 E167.62642
G1 X171.000 Y36.280 E167.67333
